X:1
T:Kilcoon
M:C|
L:1/8
R:Reel
K:G
G,2B,D GBdB | c2 ec dB{d}BA | GEDE GABG | A/B/c BA GEDB, |
G,2B,D GBdB | cdef ~g3a | bgag edBA |1 GEDE GEDB,:||2 GEDE GABc ||
dg~g2 dgeg | dggf gfed | ea{b}ag ~a3g | ea{b}ag edBc |
dg~g2 dgbg | agef ~g3a | bgag edBA |1 GEDE GABc:||2 GEDE GEDB,|]

composer: Joe Liddy
